data/img/material/white/exit-to-app.svg

<svg xmlns="http://www.w3.org/2000/svg" viewBox="0 0 24 24">
    <path fill="#FFF" d="M5 3A2 2 0 003 5v4h2V5h14v14H5v-4H3v4a2 2 0 002 2h14a2 2 0 002-2V5a2 2 0 00-2-2zM10.08 15.58 11.5 17l5-5-5-5-1.42 1.41L12.67 11H3v2h9.67z"/>
</svg>

<svg viewBox="0 0 24 24">
    <path d="M19,3H5C3.89,3 3,3.89 3,5V9H5V5H19V19H5V15H3V19C3,20.1 3.9,21 5,21H19C20.1,21 21,20.1 21,19V5C21,3.89 20.1,3 19,3M10.08,15.58L11.5,17L16.5,12L11.5,7L10.08,8.41L12.67,11H3V13H12.67L10.08,15.58Z" fill="#fff"/>
</svg>
